X:124
T:Lady Banbury's Hornpipe. (p)1657.PLFD1.124
A:England; London
M:3/2
L:1/8
Q:1/2=100
B:Playford, Dancing Master,3rd Ed.,1657
O:
H:1657.
Z:Chris Partington <www.cpartington.plus>
K:F
(AB)| c2 (cd) c2 AB G2 AB|(cA)(cA) c3 A F2 :||:\
fg |a2 gf g2 ed c2 fg|
a2 gf g3 e c2 fg | agag f2 c2 d2 AB| (cA)(cA) c3 A F2:|

